_site/img/aprovechar-pagina-web-sencilla.svg

<!DOCTYPE svg PUBLIC "-//W3C//DTD SVG 1.1//EN" "http://www.w3.org/Graphics/SVG/1.1/DTD/svg11.dtd">
<!-- Uploaded to: SVG Repo, www.svgrepo.com, Transformed by: SVG Repo Mixer Tools -->
<svg width="80px" height="80px" viewBox="0 0 24 24" fill="none" xmlns="http://www.w3.org/2000/svg" stroke="#454546">
<g id="SVGRepo_bgCarrier" stroke-width="0"/>
<g id="SVGRepo_tracerCarrier" stroke-linecap="round" stroke-linejoin="round"/>
<g id="SVGRepo_iconCarrier"> <path d="M2 14C2 10.2288 2 8.34315 3.17157 7.17157C4.34315 6 6.22876 6 10 6H14C17.7712 6 19.6569 6 20.8284 7.17157C22 8.34315 22 10.2288 22 14C22 17.7712 22 19.6569 20.8284 20.8284C19.6569 22 17.7712 22 14 22H10C6.22876 22 4.34315 22 3.17157 20.8284C2 19.6569 2 17.7712 2 14Z" stroke="#454546" stroke-width="1.5"/> <path opacity="0.5" d="M16 6C16 4.11438 16 3.17157 15.4142 2.58579C14.8284 2 13.8856 2 12 2C10.1144 2 9.17157 2 8.58579 2.58579C8 3.17157 8 4.11438 8 6" stroke="#454546" stroke-width="1.5"/> <path opacity="0.5" d="M12 17.3333C13.1046 17.3333 14 16.5871 14 15.6667C14 14.7462 13.1046 14 12 14C10.8954 14 10 13.2538 10 12.3333C10 11.4129 10.8954 10.6667 12 10.6667M12 17.3333C10.8954 17.3333 10 16.5871 10 15.6667M12 17.3333V18M12 10V10.6667M12 10.6667C13.1046 10.6667 14 11.4129 14 12.3333" stroke="#454546" stroke-width="1.5" stroke-linecap="round"/> </g>
</svg>

<svg xmlns="http://www.w3.org/2000/svg" width="80" height="80" fill="none" stroke="#454546" viewBox="0 0 24 24"><g stroke-width="1.5"><path d="M2 14c0-3.771 0-5.657 1.172-6.828C4.343 6 6.229 6 10 6h4c3.771 0 5.657 0 6.828 1.172C22 8.343 22 10.229 22 14c0 3.771 0 5.657-1.172 6.828C19.657 22 17.771 22 14 22h-4c-3.771 0-5.657 0-6.828-1.172C2 19.657 2 17.771 2 14Z"/><path d="M16 6c0-1.886 0-2.828-.586-3.414C14.828 2 13.886 2 12 2c-1.886 0-2.828 0-3.414.586C8 3.172 8 4.114 8 6" opacity=".5"/><path stroke-linecap="round" d="M12 17.333c1.105 0 2-.746 2-1.666 0-.92-.895-1.667-2-1.667s-2-.746-2-1.667c0-.92.895-1.666 2-1.666m0 6.666c-1.105 0-2-.746-2-1.666m2 1.666V18m0-8v.667m0 0c1.105 0 2 .746 2 1.666" opacity=".5"/></g></svg>
